X: 9
T: BLANCHLAND RACES
%R: hornpipe
B: Jean White "100 Popular Hornpipes, Reels, Jigs and Country Dances", Boston 1880 p.4
F: http://www.loc.gov/resource/sm1880.09124.0#seq-1
Z: 2014 John Chambers <jc:trillian.mit.edu>
M: C|
L: 1/8
K: A
% - - - - - - - - - - - - - - - - - - - - - - - - - - - - -
|:\
A2 (3cBA e>Ac>A | e>Aa>A g>Af>A | e>A (3cBA e>A (3cBA | B>Ec>E d>EB>E |
A2 (3cBA e>Ac>A | e>Aa>A g>Af>A | e>fe>c e>ae>c | B>AB>c A2z2 H:|
E2 (3GFE G>E (3FED | B>Ed>E c>EB>E | A2 (3cBA e>Ac>A | e>Aa>A g>Af>A |
e>A (3cBA a>Af>A | e>A (3cBA a>Af>A | e>cf>e d>cB>A | G>AB>A G>E"_D.C."F>G |]
% - - - - - - - - - - - - - - - - - - - - - - - - - - - - -

%%sep 1 1 500
%%sep 1 1 500
